outputs/icons/file/publish_round.svg

<svg xmlns="http://www.w3.org/2000/svg" width="1200" height="1200" fill="none"><path fill="#000" d="M300 200c-27.614 0-50 22.386-50 50s22.386 50 50 50h600c27.615 0 50-22.386 50-50s-22.385-50-50-50zm-28.661 478.66c-7.875 7.875-2.298 21.34 8.839 21.34H450v200c0 55.23 44.771 100 100 100h100c55.23 0 100-44.77 100-100V700h169.82c11.14 0 16.715-13.465 8.84-21.34L608.84 358.839c-4.885-4.881-12.795-4.881-17.68 0z"/></svg>

<svg width="1200" height="1200" viewBox="0 0 1200 1200" fill="none" xmlns="http://www.w3.org/2000/svg"><path d="M300 200C272.386 200 250 222.386 250 250C250 277.614 272.386 300 300 300H600H900C927.615 300 950 277.614 950 250C950 222.386 927.615 200 900 200H300ZM271.339 678.66C263.464 686.535 269.041 700 280.178 700H450V900C450 955.23 494.771 1000 550 1000H650C705.23 1000 750 955.23 750 900V700H919.82C930.96 700 936.535 686.535 928.66 678.66L608.84 358.839C603.955 353.958 596.045 353.958 591.16 358.839L271.339 678.66Z" fill="#1D1E23"/></svg>
